!!!OTL: Sommerlied
!!!ARE: Europa, Mitteleuropa, Deutschland
!!!SCT: A0142
!!!YEM: Copyright 1995, estate of Helmut Schaffrath.
**kern
*ICvox
*Ivox
!! Mixed meters:  4/2; 6/2
*M6/2
*k[]
*C:
{2c
=1
2c
2c
2e
2c
=2
1g
1g}
=3
{1cc
=4
1b
2g
1a
2g
=5
*M4/2
1e
2r}
{2c
=6
2g
2a
2b
2g
=7
1cc
1b}
=8
{1a
=9
*M6/2
1g
2e
1f
2d
=10
*M4/2
1c
2r}
{2c
=11
2g
2g
2f
2e
=12
1f
1e}
=13
{1c
=14
*M6/2
1e
2a
1g
2f
=15
*M4/2
1d}
{1a
=16
2g
2g
2f
2e
=17
1c
1d}
=18
{1a
=19
*M6/2
1g
2e
1f
2d
=20
1.c}
==
!!!AGN: Romanze, Ballade, Lied
!! G Rhaw, Bicinia. Viteb. 1545. Tom. I. No. 91. Von Boehme
!!    "rhythmisch gegliedert".
!!!ONB: ESAC (Essen Associative Code) Database: ALTDEU
!!!AMT: irregular
!!!AIN: vox
!!!EED: Helmut Schaffrath
!!!EEV: 1.0
*-
